X:1
T: The MacAulays of Benbecula
C:
R:Strathspey
Q: 128
K:D
M:4/4
L:1/16
|:A2|b4 a3d f4 f3e|d2 f4 DF A4 F3A|B3c ((3d2c2B2) A3f d3A|B4 e4 e4 f3e|
d2 b4 ad f4 f3e|d2 f4 DF A4 F3A|B3c ((3d2c2B2) A3f d3A|B4 d4 d4 e3d|
c3B cd3 e4 A4|A2 a4 fe f4 ((3f2e2d2) |g3f g3b a3f dA3|B4 e4 e4 f3e|
d2 b4 ad f4 f3e|d2 f4 DF A4 F3A|B3c ((3d2c2B2) A3f d3A|B4 d4 d4:|
